common/artwork/ic_sql.svg

<?xml version="1.0" encoding="UTF-8" standalone="no"?>
<svg xmlns:osb="http://www.openswatchbook.org/uri/2009/osb" xmlns:dc="http://purl.org/dc/elements/1.1/" xmlns:cc="http://creativecommons.org/ns#" xmlns:rdf="http://www.w3.org/1999/02/22-rdf-syntax-ns#" xmlns="http://www.w3.org/2000/svg" xmlns:sodipodi="http://sodipodi.sourceforge.net/DTD/sodipodi-0.dtd" xmlns:inkscape="http://www.inkscape.org/namespaces/inkscape" height="1066.6666" width="1000" id="svg2" version="1.1"
	inkscape:version="0.92.1 r15371" sodipodi:docname="ic_sql.svg">
	<metadata id="metadata10">
		<rdf:RDF>
			<cc:Work rdf:about="">
				<dc:format>image/svg+xml</dc:format>
				<dc:type rdf:resource="http://purl.org/dc/dcmitype/StillImage" />
			</cc:Work>
		</rdf:RDF>
	</metadata>
	<defs id="defs8">
		<style id="style2988" type="text/css">
			.fil0 {fill:#006C3B}
			.fil1 {fill:#77C06C}
		</style>
		<linearGradient gradientTransform="matrix(0,0,0,0,-49014053000,-1.5520205e11)" osb:paint="solid" id="linearGradient19282">
			<stop id="stop19284" offset="0" style="stop-color:#666666;stop-opacity:1;" />
		</linearGradient>
		<inkscape:path-effect is_visible="true" id="path-effect36695" effect="spiro" />
		<clipPath id="clipPath980">
			<path id="path982" inkscape:connector-curvature="0" d="M 5.38916,28.1929 H 27.1973 V 3.86426 H 5.38916 Z" />
		</clipPath>
		<clipPath id="clipPath46">
			<path id="path48" inkscape:connector-curvature="0" d="M 0,32 H 32 V 0 H 0 Z" />
		</clipPath>
		<clipPath id="clipPath980-5">
			<path id="path982-0" inkscape:connector-curvature="0" d="M 5.38916,28.1929 H 27.1973 V 3.86426 H 5.38916 Z" />
		</clipPath>
		<clipPath id="clipPath46-9">
			<path id="path48-0" inkscape:connector-curvature="0" d="M 0,32 H 32 V 0 H 0 Z" />
		</clipPath>
		<style type="text/css" id="style2988-0">
			.fil0 {fill:#006C3B}
			.fil1 {fill:#77C06C}
		</style>
		<style id="style2988-6" type="text/css">
			.fil0 {fill:#006C3B}
			.fil1 {fill:#77C06C}
		</style>
	</defs>
	<sodipodi:namedview pagecolor="#ffffff" bordercolor="#666666" borderopacity="1" objecttolerance="10" gridtolerance="10" guidetolerance="10" inkscape:pageopacity="0" inkscape:pageshadow="2" inkscape:window-width="1728" inkscape:window-height="1029"
		id="namedview6" showgrid="false" inkscape:zoom="0.24208851" inkscape:cx="-1860.1584" inkscape:cy="864.039" inkscape:window-x="192" inkscape:window-y="101" inkscape:window-maximized="0" inkscape:current-layer="svg2" />
	<style id="style8068" type="text/css">
		.st0{fill:#333333;}
	</style>
	<g id="XMLID_2_" transform="matrix(14.116511,0,0,14.116511,-226.60897,-179.27617)" style="fill:#808080;fill-opacity:1">
		<path
			d="m 51.2,46.613333 c 5.653333,0 10.88,-0.533333 15.786667,-1.493333 4.906666,-1.066667 8.746666,-2.56 11.626666,-4.586667 v 6.08 c 0,1.6 -1.173333,3.2 -3.626666,4.586667 -2.453334,1.386667 -5.76,2.56 -10.026667,3.306667 -4.266667,0.746666 -8.746667,1.28 -13.76,1.28 -5.013333,0 -9.493333,-0.426667 -13.76,-1.28 C 33.173333,53.653333 29.866667,52.586667 27.413333,51.2 24.96,49.813333 23.786667,48.32 23.786667,46.613333 v -6.08 c 2.88,2.026667 6.72,3.52 11.626666,4.586667 C 40.32,46.08 45.546667,46.613333 51.2,46.613333 Z m 0,27.413334 c 5.653333,0 10.88,-0.533334 15.786667,-1.493334 4.906666,-1.066666 8.746666,-2.56 11.626666,-4.586666 v 6.08 c 0,1.6 -1.173333,3.2 -3.626666,4.586666 C 72.533333,80 69.226667,81.173333 64.96,81.92 60.693333,82.666667 56.106667,83.2 51.2,83.2 46.293333,83.2 41.706667,82.773333 37.44,81.92 33.173333,81.066667 29.866667,80 27.413333,78.613333 24.96,77.226667 23.786667,75.733333 23.786667,74.026667 v -6.08 c 2.88,2.026666 6.72,3.52 11.626666,4.586666 4.906667,0.96 10.133334,1.493334 15.786667,1.493334 z m 0,-13.653334 c 5.653333,0 10.88,-0.533333 15.786667,-1.493333 4.906666,-0.96 8.746666,-2.56 11.626666,-4.586667 v 6.08 c 0,1.6 -1.173333,3.2 -3.626666,4.586667 -2.453334,1.386667 -5.76,2.56 -10.026667,3.306667 -4.266667,0.853333 -8.746667,1.28 -13.76,1.28 -5.013333,0 -9.493333,-0.426667 -13.76,-1.28 C 33.173333,67.413333 29.866667,66.346667 27.413333,64.96 24.96,63.573333 23.786667,62.08 23.786667,60.373333 v -6.08 c 2.88,2.026667 6.72,3.52 11.626666,4.586667 C 40.32,59.946667 45.546667,60.373333 51.2,60.373333 Z M 51.2,19.2 c 4.906667,0 9.493333,0.426667 13.76,1.28 4.266667,0.853333 7.573333,1.92 10.026667,3.306667 2.453333,1.386666 3.626666,2.88 3.626666,4.586666 V 32.96 c 0,1.6 -1.173333,3.2 -3.626666,4.586667 -2.453334,1.386666 -5.76,2.56 -10.026667,3.306666 -4.266667,0.746667 -8.746667,1.28 -13.76,1.28 -5.013333,0 -9.493333,-0.426666 -13.76,-1.28 C 33.173333,40 29.866667,38.933333 27.413333,37.546667 24.96,36.16 23.786667,34.666667 23.786667,32.96 v -4.586667 c 0,-1.6 1.173333,-3.2 3.626666,-4.586666 C 29.866667,22.4 33.173333,21.226667 37.44,20.48 41.706667,19.626667 46.293333,19.2 51.2,19.2 Z"
			class="st0" id="XMLID_8_" inkscape:connector-curvature="0" style="fill:#808080;fill-opacity:1;stroke-width:1.06666672" />
	</g>
</svg>

<svg xmlns="http://www.w3.org/2000/svg" width="1000" height="1066.667"><g style="fill:gray;fill-opacity:1"><path d="M51.2 46.613c5.653 0 10.88-.533 15.787-1.493 4.906-1.067 8.746-2.56 11.626-4.587v6.08c0 1.6-1.173 3.2-3.626 4.587-2.454 1.387-5.76 2.56-10.027 3.307-4.267.746-8.747 1.28-13.76 1.28s-9.493-.427-13.76-1.28c-4.267-.854-7.573-1.92-10.027-3.307-2.453-1.387-3.626-2.88-3.626-4.587v-6.08c2.88 2.027 6.72 3.52 11.626 4.587 4.907.96 10.134 1.493 15.787 1.493Zm0 27.414c5.653 0 10.88-.534 15.787-1.494 4.906-1.066 8.746-2.56 11.626-4.586v6.08c0 1.6-1.173 3.2-3.626 4.586-2.454 1.387-5.76 2.56-10.027 3.307-4.267.747-8.853 1.28-13.76 1.28s-9.493-.427-13.76-1.28c-4.267-.853-7.573-1.92-10.027-3.307-2.453-1.386-3.626-2.88-3.626-4.586v-6.08c2.88 2.026 6.72 3.52 11.626 4.586 4.907.96 10.134 1.494 15.787 1.494zm0-13.654c5.653 0 10.88-.533 15.787-1.493 4.906-.96 8.746-2.56 11.626-4.587v6.08c0 1.6-1.173 3.2-3.626 4.587-2.454 1.387-5.76 2.56-10.027 3.307-4.267.853-8.747 1.28-13.76 1.28s-9.493-.427-13.76-1.28c-4.267-.854-7.573-1.92-10.027-3.307-2.453-1.387-3.626-2.88-3.626-4.587v-6.08c2.88 2.027 6.72 3.52 11.626 4.587 4.907 1.067 10.134 1.493 15.787 1.493Zm0-41.173c4.907 0 9.493.427 13.76 1.28 4.267.853 7.573 1.92 10.027 3.307 2.453 1.386 3.626 2.88 3.626 4.586v4.587c0 1.6-1.173 3.2-3.626 4.587-2.454 1.386-5.76 2.56-10.027 3.306-4.267.747-8.747 1.28-13.76 1.28s-9.493-.426-13.76-1.28c-4.267-.853-7.573-1.92-10.027-3.306-2.453-1.387-3.626-2.88-3.626-4.587v-4.587c0-1.6 1.173-3.2 3.626-4.586 2.454-1.387 5.76-2.56 10.027-3.307 4.267-.853 8.853-1.28 13.76-1.28Z" style="fill:gray;fill-opacity:1;stroke-width:1.06666672" transform="translate(-226.609 -179.276)scale(14.11651)"/></g></svg>
